X:249
T:Dukes Hornpipe. JC.254
T:Lady Flashdash, aka. JC.254
T:Back Of Th Haggard,The, aka. JC.254
R:Hp
S:John Clare,Poet,Helpstone (1793-1864)
N:Has also aquired the name  more recently off Jamie
N:Knowles due to it's untitled appearance in the Joseph Kershaw MS. CGP.
O:England
A:Northamptonshire
Z:vmp.P. Headford
M:6/8
L:1/8
Q:2/4=90
K:D
A2|\
dfdf ecAc|dBGB AFDF|EGFA Gged|c2A2A2A2|!
dAA2A2|fefg aAA2|BdGB AGFE|D2D2 D2:|!
|:A2|dAdA FAFD|BGDG BGdB|gefd edcB|cded cBAG|!
Fdd2 Gee2|Aff2 Bgg2|afdf gedc|d2d2 d2:|

